X: 114201
T: The BRAES OF AUCHTERTYRE
Q: "Strathspey."
R:  Strathspey.
%R: strathspey
B: James Kerr "Merry Melodies" v.1 p.14 s.2 #1
Z: 2017 John Chambers <jc:trillian.mit.edu>
M: C
L: 1/16
%%slurgraces yes
%%graceslurs yes
K: C
uE2 |\
vC4 uC3uF (EG3) uG3uA | c3de3d c3A (Gc3) |\
AAA2 A3G A4 a4 | vgc3 f3ue {e}d4 c4 |\
C4 C3F (EG3) G3A |
c3de3d c3A (Gc3) |\
A3cG3c F3cE3c | dcBA cE3 {E}D4 C2 |]\
uf2 |\
ve3vfug3ua g3ec3g | agfe vd3uf ve3vduc3uG |
AAA2 ua3ug !1!a4 !3!c'4 | !0!e!2!c3 f3e {e}d4 c3uf |\
ve3vfug3ua g3ec3g | agfe df3 e3dc3G |\
A3cG3c F3cE3c | dcBA cE3 {E}D4 C2 |]

%%sep 1 1 500
%%sep 1 1 500

